!!!OTL:Lieberscherz.
!!!OTL-incipit:WENN ZU MEIM SCHAETZERL KOMMST
!!!COM: H. Langer
!!!ARE: Europa, Mitteleuropa, Deutschland, Schwaben
!!!SCT: F0178
!!!YEM: Copyright 1995, estate of Helmut Schaffrath.
**kern	**text
*ICvox	*
*M3/8	*
*k[f#c#g#]	*
*A:	*
=1	=1
!LO:TX:a:t=Allegretto.	!
!LO:TX:a:t=Ges. v. H. Langer	!
!LO:TX:a:t=(Schwäbisch)	!
{8e	1._Wenn
8a	ʒu
8a	mei'm
=2	=2
8.g#	Schätʒerl
16f#	.
8e	kommſt,
=3	=3
8dd/	thu'
8b/	mers
8g#	ſchön
=4	=4
8b/	grüße,
8a	.
8r}	.
=5	=5
{8e	wenn
8a	ʒu
8a	mei'm
=6	=6
8.g#	Schätʒerl
16f#	.
8e	kommſt,
=7	=7
8dd/	ſag'
8b/	em
8g#	viel
=8	=8
4a	Grüß.
8r}	.
=9	=9
{8.b/	Wenn
16cc#/	es
8b/	fragt,
=10	=10
8.b/	wie
16cc#/	es
8b/	geht,
=11	=11
8.b/	wie
16cc#/	es
8b/	ſteht,
=12	=12
8.b/	wie
16cc#/	es
8b/}	geht,
=13	=13
{8a	ſag:
8g#	auf
8f#	ʒwei
=14	=14
8e	Füß-
4ee^	-le!
=15	=15
8dd/	ſag:
8b/	auf
8g#	ʒwei
=16	=16
4a	Füß.
8r}	.
==	==
!!!AGN: Liebes - Lied, Scherz
!!!ONB: ESAC (Essen Associative Code) Database: FINK
!!!AMT: simple triple
!!!AIN: vox
!!!EED: Helmut Schaffrath
!!!EEV: 1.0
!!Text: Volkslied
!!!source: Musikalischer Hausschatz der Deutschen. Eine Sammlung von über 1000 Liedern und Gesängen mit Singstimmen und Klavierbegleitung. Leipzig, Litterarisches Verlags-Haus.
!!!page: 103
!!!ENC: Anna Maria Matuszewska
!!!EEV: 2025/03/11
*-	*-
